X:5532
T:Rezijanka II
O:england
C:Trad.
S:Slovenia
M:2/4
L:1/8
Q:1/4=120
E:10
P:(DG)L
K:D
P:D
A>A\
|:d2f2 | e>d c>c | e>e e2 | f>g e>c |1 d2 A>A :|2 d2 G>G ||\
K:G
P:G
|:G2B2 | A>G F>F | A>A A2 | B>c A>F |1 G>B G>G :|2 G>B A>A ||\
K:D
P:L
|:d2f2 | e>d c>c | e>e e2 | f>g e>c |1 d2 A>A :|2 d>f d>d |
|:d2f2 | e>d c>c | e>e e2 | f>g e>c |1 d2 A>A :|2 d2 z2 | G4\


